icons/lightbulb-filled.svg

<svg width="24" height="24" viewBox="0 0 24 24" fill="none" xmlns="http://www.w3.org/2000/svg">
<path fill-rule="evenodd" clip-rule="evenodd" d="M16.57 15H7.438C7.17194 14.5208 6.9026 14.0435 6.63 13.568C5.526 11.628 5 10.206 5 8.5C5 4.655 8.192 2 11.997 2C15.803 2 19 4.658 19 8.5C19 10.205 18.47 11.641 17.366 13.586C17.021 14.194 16.763 14.649 16.569 15H16.57ZM15.987 17C15.899 20.412 14.829 21.99 11.997 21.99C9.172 21.99 8.095 20.393 8.007 17H15.987ZM15.003 10C15.999 10 15.999 9 15.999 9C15.999 7.93913 15.5776 6.92172 14.8274 6.17157C14.0773 5.42143 13.0599 5 11.999 5C11.999 5 11 5.001 11 6C11 6.999 12 6.999 12 6.999C13.08 6.999 14 7.875 14 9C14 9 14.006 10 15.003 10Z" fill="#3A3A47"/>
</svg>

<svg xmlns="http://www.w3.org/2000/svg" width="24" height="24" viewBox="0 0 24 24">
    <path fill="#3A3A47" fill-rule="evenodd" d="M15.987 17.001c-.089 3.411-1.159 4.99-3.99 4.99-2.825 0-3.902-1.598-3.99-4.99h7.98zM11.997 2C15.803 2 19 4.658 19 8.5c0 1.705-.53 3.141-1.634 5.086a148.19 148.19 0 0 0-.798 1.415H7.44a119.71 119.71 0 0 0-.808-1.433C5.526 11.628 5 10.206 5 8.5 5 4.655 8.192 2 11.997 2zM12 5S11 5.001 11 6s1 .999 1 .999c1.08 0 2 .876 2 2.001 0 0 .006 1 1.003 1 .996 0 .996-1 .996-1a4 4 0 0 0-4-4z"/>
</svg>
